X:1
T:Nativity
T:E Major         Hezekiah Moors, 1809
T:Transcribed from Province Harmony, 1809.
T:Isaac Watts, 1707 (Hymn 3, Book 1)                           66. 86. (S. M.)
%%score [ 1 2 3 4 ]
L:1/8
Q:1/4=140
M:2/2
K:E
V:1 treble nm="Tr." snm="Tr."
V:2 treble nm="C." snm="C."
V:3 treble-8 nm="T." snm="T."
V:4 bass nm="B." snm="B."
V:1
 B8 | B2 B2 B2 G2 | A6 G2 | G2 F2 G2 ^A2 | [FB]6 z2 |: z8 | z4 z2 e2 | f2 d2 B2 d2 | e2 c2 c2 z2 | %9
w: Glo-|ry to God on|high! And|hea- venly peace on|earth;||Good-|will to men, to|an- gels joy,|
 z4 z2 c2 | B2 G2 B2 e2 | (d2 B2) (c2 ^A2) | B6 B2 | (G2 E2) (F2 c2) | B4 B4 |1 G6 z2 :|2 G8 |] %17
w: Good-|will to men, to|an- * gels *|joy At|our * Re- *|dee- mer's|birth!||
V:2
 E8 | E2 D2 E2 E2 | E6 E2 | E2 F2 G2 F2 | F6 z2 |: z8 | z8 | z4 z2 B,2 | E2 G2 E2 B,2 | %9
w: Glo-|ry to God on|high! And|hea- venly peace on|earth;|||Good-|will to men, to|
 E2 E2 E2 z2 | z8 | z8 | z4 z2 F2 | G4 F4 | (G>AGF E2) D2 |1 E6 z2 :|2 E8 |] %17
w: an- gels joy,|||At|our Re-|dee- * * * * mer's|birth!||
V:3
 E8 | G2 F2 G2 B2 | c6 B2 | c2 d2 ed c2 | B6 z2 |: z4 z2 B2 | c2 e2 d2 B2 | d2 f2 d2 B2 | %8
w: Glo-|ry to God on|high! And|hea- venly peace * on|earth;|Good-|will to men, to|an- gels joy, At|
 e2 e2 e2 d2 | c6 e2 | d2 B2 e2 g2 | (f2 d2) (e2 c2) | B6 d2 | (e2 c2) (B2 A2) | G4 F4 |1 E6 z2 :|2 %16
w: our Re- dee- mer's|birth! Good-|will to men, to|an- * gels *|joy, At|our * Re- *|dee- mer's|birth!|
 E8 |] %17
w: |
V:4
 E,8 | E,2 B,,2 E,2 G,2 | A,6 B,2 | E,2 D,2 C,2 F,2 | B,,6 B,,2 |: E,2 G,2 E,2 G,2 | %6
w: Glo-|ry to God on|high! And|hea- venly peace on|earth; Good-|will to men, to|
 (A,2 G,2) (F,2 E,2) | B,6 B,2 | E,2 E,2 E,2 G,2 | C,2 C,2 C,2 z2 | z8 | z8 | z4 z2 B,,2 | %13
w: an- * gels *|joy, Good-|will to men, to|an- gels joy,|||At|
 E,4 D,4 | (E,>F,G,A, B,2) B,,2 |1 E,6 B,,2 :|2 E,8 |] %17
w: our Re-|dee- * * * * mer's|birth! Good–||

